build/img/main/p6.svg

<svg width="93" height="48" viewBox="0 0 93 48" fill="none" xmlns="http://www.w3.org/2000/svg">
<path fill-rule="evenodd" clip-rule="evenodd" d="M4.11995 24.0253C4.11995 11.9988 23.3426 2.21369 46.9754 2.21369C70.603 2.21369 89.8308 11.9988 89.8308 24.0253C89.8308 36.0518 70.603 45.837 46.9754 45.837C23.3426 45.837 4.11995 36.0518 4.11995 24.0253ZM92.9957 24.0253C92.9957 10.7848 72.3929 0.0605469 46.9754 0.0605469C21.5579 0.0605469 0.955078 10.79 0.955078 24.0305C0.955078 37.2711 21.5579 48.0005 46.9754 48.0005C72.3929 47.9901 92.9957 37.2607 92.9957 24.0253Z" fill="white"/>
<path fill-rule="evenodd" clip-rule="evenodd" d="M15.7628 30.7649H12.3281V16.4141H15.7628V21.8047H21.0445V16.4141H24.4791V30.7649H21.0445V24.596H15.7628V30.7649Z" fill="white"/>
<path fill-rule="evenodd" clip-rule="evenodd" d="M38.0672 27.7557C37.2319 30.7079 34.5288 31.1593 32.5728 31.1593C31.1823 31.1593 26.8916 30.8532 26.8916 25.5455C26.8916 21.9344 29.3664 19.9629 32.8218 19.9629C37.9583 19.9629 38.2332 24.4767 38.2748 25.7479L38.2955 26.3186H30.181C30.2017 27.3251 30.6583 29.0684 32.7181 29.0684C33.6364 29.0684 34.5911 28.6793 34.8608 27.7557H38.0672ZM35.0061 24.5753C34.9646 22.3391 33.5482 22.0538 32.7803 22.0538C32.3653 22.0538 30.4923 22.0123 30.181 24.5753H35.0061Z" fill="white"/>
<path fill-rule="evenodd" clip-rule="evenodd" d="M43.4108 21.6024C44.2669 20.4558 45.6574 19.9629 47.0738 19.9629C48.5058 19.9629 50.6122 20.352 50.6122 24.2329V30.7701H47.4525V24.7413C47.4525 23.714 47.3488 22.0538 45.6626 22.0538C43.5821 22.0538 43.5405 24.4508 43.5405 24.9022V30.7701H40.3809V20.352H43.4212V21.6024H43.4108Z" fill="white"/>
<path fill-rule="evenodd" clip-rule="evenodd" d="M59.9569 20.352H63.7599L59.5833 24.4508L64.1387 30.7649H60.372L57.4146 26.4431L56.3355 27.5274V30.7649H53.1758V16.4141H56.3355V24.3107L59.9569 20.352Z" fill="white"/>
<path fill-rule="evenodd" clip-rule="evenodd" d="M67.9876 24.5753C68.2989 22.0123 70.1719 22.0538 70.5922 22.0538C71.36 22.0538 72.7712 22.3391 72.8179 24.5753H67.9876ZM72.6675 27.7557C72.3977 28.6793 71.4379 29.0684 70.5247 29.0684C68.465 29.0684 68.0032 27.3251 67.9876 26.3186H76.1021L76.0814 25.7479C76.0399 24.4767 75.7701 19.9629 70.6285 19.9629C67.1783 19.9629 64.6982 21.9344 64.6982 25.5455C64.6982 30.8532 68.9838 31.1593 70.3794 31.1593C72.3354 31.1593 75.0385 30.7079 75.8687 27.7557H72.6675Z" fill="white"/>
<path fill-rule="evenodd" clip-rule="evenodd" d="M81.3423 16.4141V30.7649H78.1826V16.4141H81.3423Z" fill="white"/>
</svg>

<svg width="93" height="48" fill="none" xmlns="http://www.w3.org/2000/svg"><path fill-rule="evenodd" clip-rule="evenodd" d="M4.12 24.025C4.12 12 23.343 2.214 46.975 2.214c23.628 0 42.856 9.785 42.856 21.811 0 12.027-19.228 21.812-42.856 21.812-23.632 0-42.855-9.785-42.855-21.812zm88.876 0c0-13.24-20.603-23.964-46.02-23.964C21.557.06.955 10.79.955 24.03.955 37.27 21.557 48 46.975 48c25.417-.01 46.02-10.74 46.02-23.976z" fill="#fff"/><path fill-rule="evenodd" clip-rule="evenodd" d="M15.763 30.765h-3.435v-14.35h3.435v5.39h5.281v-5.39h3.435v14.35h-3.434v-6.169h-5.282v6.169zm22.304-3.009c-.835 2.952-3.538 3.403-5.494 3.403-1.39 0-5.681-.306-5.681-5.613 0-3.612 2.474-5.583 5.93-5.583 5.136 0 5.411 4.514 5.453 5.785l.02.57h-8.114c.02 1.007.477 2.75 2.537 2.75.918 0 1.873-.389 2.143-1.312h3.206zm-3.06-3.18c-.042-2.237-1.459-2.522-2.227-2.522-.415 0-2.288-.042-2.599 2.521h4.825zm8.403-2.974c.857-1.146 2.247-1.64 3.664-1.64 1.432 0 3.538.39 3.538 4.27v6.538h-3.16v-6.029c0-1.027-.103-2.687-1.79-2.687-2.08 0-2.121 2.397-2.121 2.848v5.868h-3.16V20.352h3.04v1.25h-.01zm16.547-1.25h3.803l-4.177 4.099 4.556 6.314h-3.767l-2.957-4.322-1.08 1.084v3.238h-3.16v-14.35h3.16v7.896l3.622-3.959zm8.031 4.223c.31-2.563 2.184-2.521 2.604-2.521.768 0 2.18.285 2.226 2.521h-4.83zm4.68 3.18c-.27.924-1.23 1.313-2.143 1.313-2.06 0-2.522-1.743-2.537-2.75h8.114l-.02-.57c-.042-1.271-.312-5.785-5.453-5.785-3.45 0-5.93 1.971-5.93 5.582 0 5.308 4.285 5.614 5.68 5.614 1.956 0 4.66-.451 5.49-3.403h-3.201zm8.674-11.341v14.35h-3.16v-14.35h3.16z" fill="#fff"/></svg>
